!! Stephen C. Foster, "Nelly Bly"
!! from 'Stephen Foster Song Book' Dover Publications (New York) pp. 77-79
!! NOTE:  Leading and trailing bars of rest have been omitted.
**kern
*M4/4
*MM98
*C:
=1
8e
8f
4g
8e
8f
4g
=2
8.e
16f
8g
8a
4d
8r
8f
=3
8.e
16f
8g
8g
8a
8b
8cc
8cc
=4
8.b
16cc
8.dd
16b
4.cc
8r
=5
8.e
16f
8g
8g
8e
8f
8g
8g
=6
8.e
16f
{8g
8a}
4d
8r
8f
=7
8e
8f
8.g
16g
8a
8b
8cc;
8cc
=8
8.b
16cc
8.dd;
16b
4.cc
8r
!! Chorus:
=9
4ee
8cc
8cc
4cc
8a
8a
=10
16g
8.e
8.e
16c
4d
8r
8f
=11
8e
8f
4g
8a
8b
8cc
16r
16cc
=12
8b
8cc
8.dd
16b
4.cc
8r
=13
4ee
{16dd
32ee
32dd}
8cc
4dd
8cc
8a
=14
16g
8.e
8.d
16c
4d
8r
8f
=15
8e
8f
4g
8a
8b
8cc;
16r
16cc
=16
8b
8cc
8.dd;
16b
2cc
==
*-
